; generated by PrusaSlicer 2.4.2+arm64 on 2022-07-06 at 17:12:47 UTC

; 

; external perimeters extrusion width = 0.60mm
; perimeters extrusion width = 0.50mm
; infill extrusion width = 0.50mm
; solid infill extrusion width = 0.50mm
; top infill extrusion width = 0.45mm
; support material extrusion width = 0.38mm
; first layer extrusion width = 0.42mm

M73 P0 R17
M73 Q0 S17
M201 X1000 Y1000 Z200 E5000 ; sets maximum accelerations, mm/sec^2
M203 X200 Y200 Z12 E120 ; sets maximum feedrates, mm / sec
M204 P1250 R1250 T1250 ; sets acceleration (P, T) and retract acceleration (R), mm/sec^2
M205 X8.00 Y8.00 Z0.40 E4.50 ; sets the jerk limits, mm/sec
M205 S0 T0 ; sets the minimum extruding and travel feed rate, mm/sec
M107
;TYPE:Custom
M862.3 P "MK3S" ; printer model check
M862.1 P0.4 ; nozzle diameter check
M115 U3.10.1 ; tell printer latest fw version
G90 ; use absolute coordinates
M83 ; extruder relative mode
M104 S215 ; set extruder temp
M140 S60 ; set bed temp
M190 S60 ; wait for bed temp
M109 S215 ; wait for extruder temp
G28 W ; home all without mesh bed level
G80 ; mesh bed leveling
G1 Z0.2 F720
G1 Y-3 F1000 ; go outside print area
G92 E0
G1 X60 E9 F1000 ; intro line
G1 X100 E12.5 F1000 ; intro line
G92 E0
M221 S95

; Don't change E values below. Excessive value can damage the printer.

M907 E538 ; set extruder motor current
G21 ; set units to millimeters
G90 ; use absolute coordinates
M83 ; use relative distances for extrusion
M900 K0.05 ; Filament gcode LA 1.5
M900 K30 ; Filament gcode LA 1.0
M107
;LAYER_CHANGE
;Z:0.2
;HEIGHT:0.2
;BEFORE_LAYER_CHANGE
G92 E0.0
;0.2


G1 E-.8 F2100
G1 Z.4 F720
;AFTER_LAYER_CHANGE
;0.2
G1 X117.273 Y82.296 F10800
G1 Z.2 F720
G1 E.8 F2100
M204 S800
;TYPE:Skirt/Brim
;WIDTH:0.42
G1 F1200
G1 X118.258 Y81.203 E.04612
G1 X119.737 Y80.773 E.04827
G1 X130.263 Y80.773 E.33006
G1 X131.681 Y81.166 E.04612
G1 X132.727 Y82.296 E.04827
G1 X137.358 Y91.558 E.3247
G1 X137.649 Y92.79 E.03968
G1 X137.649 Y107.948 E.47527
G1 X137.567 Y108.616 E.0211
G1 X132.935 Y127.141 E.59871
G1 X132.21 Y128.421 E.04612
M73 Q1 S17
G1 X130.263 Y129.227 E.06608
G1 X119.737 Y129.227 E.33006
M73 P1 R17
G1 X118.319 Y128.834 E.04612
G1 X117.065 Y127.141 E.06608
G1 X112.433 Y108.616 E.59871
G1 X112.351 Y107.948 E.0211
G1 X112.351 Y92.79 E.47527
G1 X112.642 Y91.558 E.03968
G1 X117.246 Y82.349 E.32282
M204 S1000
G1 X117.584 Y82.518 F10800
M204 S800
G1 F1200
G1 X117.611 Y82.464 E.00188
G1 X118.545 Y81.47 E.04278
G1 X119.737 Y81.15 E.03868
G1 X130.263 Y81.15 E.33006
G1 X131.57 Y81.542 E.04278
G1 X132.389 Y82.464 E.03868
G1 X137.021 Y91.727 E.3247
G1 X137.272 Y92.79 E.03425
G1 X137.272 Y107.948 E.47527
G1 X137.201 Y108.524 E.01821
G1 X132.569 Y127.049 E.59871
G1 X131.873 Y128.222 E.04278
G1 X130.263 Y128.85 E.05416
G1 X119.737 Y128.85 E.33006
G1 X118.43 Y128.458 E.04278
G1 X117.431 Y127.049 E.05416
G1 X112.799 Y108.524 E.59871
G1 X112.728 Y107.948 E.01821
G1 X112.728 Y92.79 E.47527
G1 X112.979 Y91.727 E.03425
G1 X117.557 Y82.572 E.32094
M204 S1000
; printing object balljoint v1.stl id:0 copy 0
;WIPE_START
G1 F8640
G1 X117.611 Y82.464 E-.02771
G1 X118.545 Y81.47 E-.31505
G1 X119.737 Y81.15 E-.28484
G1 X120.31 Y81.15 E-.1324
;WIPE_END
G1 E-.04 F2100
G1 Z.6 F720
G1 X120.717 Y95.738 F10800
G1 Z.2 F720
M73 P1 R16
G1 E.8 F2100
M204 S800
;TYPE:Support material interface
;WIDTH:0.38
G1 F1200
G1 X120.369 Y95.738 E.00977
G1 X120.369 Y98.053 E.0649
G1 X120.875 Y98.053 E.01419
G1 X120.875 Y95.738 E.0649
G1 X121.391 Y95.738 E.01445
G1 X121.391 Y98.053 E.0649
M73 Q2 S17
G1 X121.906 Y98.053 E.01445
G1 X121.906 Y95.738 E.0649
G1 X122.422 Y95.738 E.01445
M73 P2 R16
G1 X122.422 Y95.973 E.00661
G1 X122.164 Y96.529 E.01718
G1 X122.422 Y96.835 E.01123
G1 X122.422 Y98.053 E.03413
G1 X122.684 Y98.053 E.00736
G1 X122.684 Y100.369 E.0649
G1 X122.938 Y100.369 E.0071
G1 X122.938 Y97.356 E.08445
G1 X123.453 Y97.76 E.01836
G1 X123.453 Y100.369 E.07312
G1 X123.969 Y100.369 E.01445
G1 X123.969 Y98.049 E.06503
G1 X124.236 Y98.152 E.00803
G1 X124.484 Y98.218 E.00721
G1 X124.484 Y100.369 E.06027
G1 X125 Y100.369 E.01445
G1 X125 Y98.273 E.05873
G1 X125.227 Y98.264 E.00636
G1 X125.516 Y98.218 E.00819
G1 X125.516 Y100.369 E.06027
G1 X126.031 Y100.369 E.01445
G1 X126.031 Y98.049 E.06503
G1 X126.369 Y97.876 E.01064
G1 X126.547 Y97.76 E.00594
G1 X126.547 Y100.369 E.07312
G1 X127.062 Y100.369 E.01445
G1 X127.062 Y97.356 E.08445
G1 X127.471 Y96.951 E.01611
M204 S1000
;WIPE_START
G1 F8640
G1 X127.062 Y97.356 E-.13275
G1 X127.062 Y100.072 E-.62725
;WIPE_END
G1 E-.04 F2100
G1 Z.6 F720
G1 X129.283 Y98.053 F10800
G1 Z.2 F720
G1 E.8 F2100
M204 S800
G1 F1200
G1 X129.631 Y98.053 E.00977
G1 X129.631 Y95.738 E.0649
G1 X129.125 Y95.738 E.01419
G1 X129.125 Y98.053 E.0649
G1 X128.609 Y98.053 E.01445
G1 X128.609 Y95.738 E.0649
G1 X128.094 Y95.738 E.01445
G1 X128.094 Y98.053 E.0649
G1 X127.578 Y98.053 E.01445
G1 X127.578 Y96.835 E.03413
G1 X127.836 Y96.529 E.01123
G1 X127.578 Y95.973 E.01718
G1 X127.578 Y95.738 E.00661
G1 X127.062 Y95.738 E.01445
G1 X127.062 Y95.93 E.0054
G1 X126.547 Y95.93 E.01445
G1 X126.547 Y95.738 E.0054
G1 X126.031 Y95.738 E.01445
G1 X126.031 Y95.93 E.0054
G1 X125.516 Y95.93 E.01445
G1 X125.516 Y95.738 E.0054
G1 X125 Y95.738 E.01445
G1 X125 Y95.93 E.0054
G1 X124.484 Y95.93 E.01445
G1 X124.484 Y95.738 E.0054
G1 X123.969 Y95.738 E.01445
G1 X123.969 Y95.93 E.0054
G1 X123.453 Y95.93 E.01445
G1 X123.453 Y95.738 E.0054
G1 X122.938 Y95.738 E.01445
G1 X122.938 Y95.93 E.0054
G1 X122.552 Y95.93 E.0108
M204 S1000
G1 X123.128 Y96.687 F10800
M204 S800
;TYPE:Support material
;WIDTH:0.42
G1 F1200
G1 X123.555 Y96.97 E.01606
G1 X123.853 Y97.129 E.01057
G1 X124.179 Y97.259 E.01102
G1 X124.535 Y97.351 E.01154
G1 X124.851 Y97.391 E.00998
G1 X125.149 Y97.391 E.00934
G1 X125.539 Y97.336 E.01235
G1 X125.821 Y97.259 E.00917
G1 X126.125 Y97.139 E.01026
G1 X126.466 Y96.958 E.01208
G1 X126.872 Y96.687 E.01531
G1 X126.754 Y96.298 E.01276
G1 X127.323 Y96.298 E.01784
G1 X127.404 Y96.471 E.006
G1 X127.014 Y96.898 E.01813
G1 X126.741 Y97.153 E.01171
G1 X126.468 Y97.37 E.01095
G1 X126.195 Y97.552 E.01028
G1 X125.921 Y97.696 E.0097
G1 X125.646 Y97.803 E.00924
G1 X125.371 Y97.873 E.0089
G1 X125.096 Y97.905 E.00869
G1 X124.904 Y97.905 E.00601
G1 X124.635 Y97.874 E.00851
G1 X124.36 Y97.805 E.00889
G1 X124.079 Y97.696 E.00944
G1 X123.744 Y97.512 E.01198
G1 X123.259 Y97.153 E.01892
G1 X122.986 Y96.898 E.01171
G1 X122.711 Y96.607 E.01255
G1 X122.596 Y96.471 E.00558
G1 X122.677 Y96.298 E.006
G1 X123.246 Y96.298 E.01784
G1 X123.144 Y96.633 E.01099
M204 S1000
;WIPE_START
G1 F8640
G1 X123.246 Y96.298 E-.08091
G1 X122.677 Y96.298 E-.13141
G1 X122.596 Y96.471 E-.04416
G1 X122.711 Y96.607 E-.0411
G1 X122.986 Y96.898 E-.09239
G1 X123.259 Y97.153 E-.08627
G1 X123.744 Y97.512 E-.13936
G1 X124.079 Y97.696 E-.08826
G1 X124.306 Y97.784 E-.05614
;WIPE_END
G1 E-.04 F2100
G1 Z.6 F720
G1 X130.263 Y92.79 F10800
G1 Z.2 F720
M73 Q2 S16
G1 E.8 F2100
M204 S800
G1 F1200
G1 X134.895 Y92.79 E.14521
G1 X134.895 Y107.948 E.47527
G1 X132.579 Y107.948 E.0726
G1 X132.579 Y110.263 E.0726
G1 X130.263 Y110.263 E.0726
G1 X130.263 Y126.473 E.50823
G1 X119.737 Y126.473 E.33006
G1 X119.737 Y110.263 E.50823
G1 X117.421 Y110.263 E.0726
G1 X117.421 Y107.948 E.0726
G1 X115.105 Y107.948 E.0726
G1 X115.105 Y92.79 E.47527
G1 X119.737 Y92.79 E.14521
G1 X119.737 Y83.527 E.29042
G1 X130.263 Y83.527 E.33006
M73 Q3 S16
G1 X130.263 Y92.733 E.28865
M204 S1000
M73 P3 R16
G1 X120.001 Y95.37 F10800
M204 S800
G1 F1200
G1 X120.001 Y98.421 E.09568
G1 X122.316 Y98.421 E.0726
G1 X122.316 Y100.737 E.0726
G1 X127.684 Y100.737 E.16828
G1 X127.684 Y98.421 E.0726
G1 X129.999 Y98.421 E.0726
G1 X129.999 Y95.37 E.09568
G1 X120.057 Y95.37 E.31172
M204 S1000
;WIPE_START
G1 F8640
G1 X123.349 Y95.37 E-.76
;WIPE_END
G1 E-.04 F2100
G1 Z.6 F720
G1 X134.217 Y107.778 F10800
G1 Z.2 F720
G1 E.8 F2100
M204 S800
G1 F1200
G1 X134.217 Y93.129 E.4593
G1 X133.799 Y93.129 E.01314
G1 X133.799 Y107.608 E.45398
G1 X133.38 Y107.608 E.01314
G1 X133.38 Y93.129 E.45398
G1 X132.961 Y93.129 E.01314
G1 X132.961 Y107.608 E.45398
G1 X132.542 Y107.608 E.01314
G1 X132.542 Y93.129 E.45398
G1 X132.123 Y93.129 E.01314
G1 X132.123 Y109.924 E.52659
G1 X131.704 Y109.924 E.01314
G1 X131.704 Y93.129 E.52659
G1 X131.285 Y93.129 E.01314
G1 X131.285 Y109.924 E.52659
G1 X130.866 Y109.924 E.01314
G1 X130.866 Y93.129 E.52659
G1 X130.447 Y93.129 E.01314
M73 P4 R16
M73 Q4 S16
G1 X130.447 Y109.924 E.52659
G1 X130.028 Y109.924 E.01314
G1 X130.028 Y98.76 E.35002
G1 X129.609 Y98.76 E.01314
G1 X129.609 Y126.133 E.85826
G1 X129.19 Y126.133 E.01314
G1 X129.19 Y98.76 E.85826
G1 X128.771 Y98.76 E.01314
G1 X128.771 Y126.133 E.85826
G1 X128.352 Y126.133 E.01314
G1 X128.352 Y98.76 E.85826
G1 X128.023 Y98.76 E.01031
G1 X128.023 Y101.076 E.0726
G1 X127.933 Y101.076 E.00282
G1 X127.933 Y126.133 E.78565
G1 X127.514 Y126.133 E.01314
G1 X127.514 Y101.076 E.78565
G1 X127.095 Y101.076 E.01314
G1 X127.095 Y126.133 E.78565
G1 X126.676 Y126.133 E.01314
M73 P5 R16
M73 Q5 S16
G1 X126.676 Y101.076 E.78565
G1 X126.257 Y101.076 E.01314
G1 X126.257 Y126.133 E.78565
G1 X125.838 Y126.133 E.01314
G1 X125.838 Y101.076 E.78565
G1 X125.419 Y101.076 E.01314
G1 X125.419 Y126.133 E.78565
G1 X125 Y126.133 E.01314
G1 X125 Y101.076 E.78565
G1 X124.581 Y101.076 E.01314
G1 X124.581 Y126.133 E.78565
G1 X124.162 Y126.133 E.01314
G1 X124.162 Y101.076 E.78565
G1 X123.743 Y101.076 E.01314
G1 X123.743 Y126.133 E.78565
G1 X123.324 Y126.133 E.01314
M73 P6 R16
M73 Q6 S16
G1 X123.324 Y101.076 E.78565
G1 X122.905 Y101.076 E.01314
G1 X122.905 Y126.133 E.78565
G1 X122.486 Y126.133 E.01314
G1 X122.486 Y101.076 E.78565
G1 X122.067 Y101.076 E.01314
G1 X122.067 Y126.133 E.78565
G1 X121.648 Y126.133 E.01314
G1 X121.648 Y98.76 E.85826
G1 X121.229 Y98.76 E.01314
G1 X121.229 Y126.133 E.85826
G1 X120.81 Y126.133 E.01314
G1 X120.81 Y98.76 E.85826
G1 X120.391 Y98.76 E.01314
G1 X120.391 Y126.133 E.85826
G1 X120.076 Y126.133 E.00988
M73 P7 R16
M73 Q7 S16
G1 X120.076 Y109.924 E.50823
G1 X119.972 Y109.924 E.00325
G1 X119.972 Y98.76 E.35002
G1 X119.661 Y98.76 E.00975
G1 X119.661 Y95.03 E.11696
G1 X119.972 Y95.03 E.00975
G1 X119.972 Y93.129 E.05961
G1 X119.553 Y93.129 E.01314
G1 X119.553 Y109.924 E.52659
G1 X119.134 Y109.924 E.01314
G1 X119.134 Y93.129 E.52659
G1 X118.715 Y93.129 E.01314
G1 X118.715 Y109.924 E.52659
G1 X118.296 Y109.924 E.01314
G1 X118.296 Y93.129 E.52659
G1 X117.877 Y93.129 E.01314
G1 X117.877 Y109.924 E.52659
G1 X117.76 Y109.924 E.00367
M73 P7 R15
G1 X117.76 Y107.608 E.0726
G1 X117.458 Y107.608 E.00947
G1 X117.458 Y93.129 E.45398
G1 X117.039 Y93.129 E.01314
G1 X117.039 Y107.608 E.45398
G1 X116.62 Y107.608 E.01314
G1 X116.62 Y93.129 E.45398
G1 X116.201 Y93.129 E.01314
G1 X116.201 Y107.608 E.45398
G1 X115.783 Y107.608 E.01314
M73 P8 R15
M73 Q8 S16
G1 X115.783 Y92.959 E.4593
M204 S1000
G1 X130.028 Y95.2 F10800
M204 S800
G1 F1200
G1 X130.028 Y93.129 E.06493
G1 X129.924 Y93.129 E.00325
G1 X129.924 Y83.867 E.29042
G1 X129.609 Y83.867 E.00988
G1 X129.609 Y95.03 E.35003
G1 X129.19 Y95.03 E.01314
M73 Q8 S15
G1 X129.19 Y83.867 E.35003
G1 X128.771 Y83.867 E.01314
G1 X128.771 Y95.03 E.35003
G1 X128.352 Y95.03 E.01314
G1 X128.352 Y83.867 E.35003
G1 X127.933 Y83.867 E.01314
G1 X127.933 Y95.03 E.35002
G1 X127.514 Y95.03 E.01314
G1 X127.514 Y83.867 E.35002
G1 X127.095 Y83.867 E.01314
G1 X127.095 Y95.03 E.35002
G1 X126.676 Y95.03 E.01314
G1 X126.676 Y83.867 E.35002
G1 X126.257 Y83.867 E.01314
G1 X126.257 Y95.03 E.35002
G1 X125.838 Y95.03 E.01314
G1 X125.838 Y83.867 E.35002
G1 X125.419 Y83.867 E.01314
G1 X125.419 Y95.03 E.35002
G1 X125 Y95.03 E.01314
G1 X125 Y83.867 E.35002
G1 X124.581 Y83.867 E.01314
G1 X124.581 Y95.03 E.35002
G1 X124.162 Y95.03 E.01314
G1 X124.162 Y83.867 E.35002
G1 X123.743 Y83.867 E.01314
G1 X123.743 Y95.03 E.35002
G1 X123.324 Y95.03 E.01314
M73 P9 R15
M73 Q9 S15
G1 X123.324 Y83.867 E.35002
G1 X122.905 Y83.867 E.01314
G1 X122.905 Y95.03 E.35002
G1 X122.486 Y95.03 E.01314
G1 X122.486 Y83.867 E.35002
G1 X122.067 Y83.867 E.01314
G1 X122.067 Y95.03 E.35002
G1 X121.648 Y95.03 E.01314
G1 X121.648 Y83.867 E.35002
G1 X121.229 Y83.867 E.01314
G1 X121.229 Y95.03 E.35002
G1 X120.81 Y95.03 E.01314
G1 X120.81 Y83.867 E.35002
G1 X120.391 Y83.867 E.01314
G1 X120.391 Y95.2 E.35535
M204 S1000
; stop printing object balljoint v1.stl id:0 copy 0
M106 S84.15
;LAYER_CHANGE
;Z:0.3
;HEIGHT:0.1
;BEFORE_LAYER_CHANGE
G92 E0.0
;0.3


;WIPE_START
G1 F8640
G1 X120.391 Y91.908 E-.76
;WIPE_END
G1 E-.04 F2100
G1 Z.6 F720
;AFTER_LAYER_CHANGE
;0.3
M104 S210 ; set temperature
; printing object balljoint v1.stl id:0 copy 0
G1 X120.717 Y95.738 F10800
G1 Z.3 F720
G1 E.8 F2100
;TYPE:Support material interface
;WIDTH:0.38
G1 F2160
G1 X120.369 Y95.738 E.00519
G1 X120.369 Y98.053 E.03452
G1 X120.875 Y98.053 E.00755
G1 X120.875 Y95.738 E.03452
G1 X121.391 Y95.738 E.00769
G1 X121.391 Y98.053 E.03452
G1 X121.906 Y98.053 E.00769
G1 X121.906 Y95.738 E.03452
G1 X122.422 Y95.738 E.00769
G1 X122.422 Y95.973 E.00351
G1 X122.164 Y96.529 E.00914
G1 X122.422 Y96.835 E.00597
G1 X122.422 Y98.053 E.01815
G1 X122.684 Y98.053 E.00391
G1 X122.684 Y100.369 E.03452
G1 X122.938 Y100.369 E.00377
G1 X122.938 Y97.356 E.04491
G1 X123.453 Y97.76 E.00977
G1 X123.453 Y100.369 E.03889
G1 X123.969 Y100.369 E.00769
G1 X123.969 Y98.049 E.03459
G1 X124.236 Y98.152 E.00427
G1 X124.484 Y98.218 E.00383
G1 X124.484 Y100.369 E.03205
G1 X125 Y100.369 E.00769
G1 X125 Y98.273 E.03124
G1 X125.227 Y98.264 E.00338
G1 X125.516 Y98.218 E.00436
G1 X125.516 Y100.369 E.03205
G1 X126.031 Y100.369 E.00769
G1 X126.031 Y98.049 E.03459
G1 X126.369 Y97.876 E.00566
G1 X126.547 Y97.76 E.00316
G1 X126.547 Y100.369 E.03889
G1 X127.062 Y100.369 E.00769
G1 X127.062 Y97.356 E.04491
G1 X127.471 Y96.951 E.00857
;WIPE_START
G1 F8640
G1 X127.062 Y97.356 E-.13275
G1 X127.062 Y100.072 E-.62725
;WIPE_END
G1 E-.04 F2100
G1 Z.7 F720
G1 X129.283 Y98.053 F10800
G1 Z.3 F720
G1 E.8 F2100
G1 F2160
G1 X129.631 Y98.053 E.00519
G1 X129.631 Y95.738 E.03452
G1 X129.125 Y95.738 E.00755
G1 X129.125 Y98.053 E.03452
G1 X128.609 Y98.053 E.00769
G1 X128.609 Y95.738 E.03452
G1 X128.094 Y95.738 E.00769
G1 X128.094 Y98.053 E.03452
G1 X127.578 Y98.053 E.00769
G1 X127.578 Y96.835 E.01815
G1 X127.836 Y96.529 E.00597
G1 X127.578 Y95.973 E.00914
G1 X127.578 Y95.738 E.00351
G1 X127.062 Y95.738 E.00769
G1 X127.062 Y95.93 E.00287
G1 X126.547 Y95.93 E.00769
G1 X126.547 Y95.738 E.00287
G1 X126.031 Y95.738 E.00769
G1 X126.031 Y95.93 E.00287
G1 X125.516 Y95.93 E.00769
G1 X125.516 Y95.738 E.00287
G1 X125 Y95.738 E.00769
G1 X125 Y95.93 E.00287
G1 X124.484 Y95.93 E.00769
G1 X124.484 Y95.738 E.00287
G1 X123.969 Y95.738 E.00769
G1 X123.969 Y95.93 E.00287
G1 X123.453 Y95.93 E.00769
G1 X123.453 Y95.738 E.00287
G1 X122.938 Y95.738 E.00769
G1 X122.938 Y95.93 E.00287
G1 X122.552 Y95.93 E.00574
; stop printing object balljoint v1.stl id:0 copy 0
;LAYER_CHANGE
;Z:0.4
;HEIGHT:0.1
;BEFORE_LAYER_CHANGE
G92 E0.0
;0.4


;WIPE_START
G1 F8640
G1 X122.938 Y95.93 E-.08898
G1 X122.938 Y95.738 E-.04445
G1 X123.453 Y95.738 E-.11906
G1 X123.453 Y95.93 E-.04445
G1 X123.969 Y95.93 E-.11906
G1 X123.969 Y95.738 E-.04445
G1 X124.484 Y95.738 E-.11906
G1 X124.484 Y95.93 E-.04445
G1 X125 Y95.93 E-.11906
G1 X125 Y95.856 E-.01701
;WIPE_END
G1 E-.04 F2100
G1 Z.7 F720
;AFTER_LAYER_CHANGE
;0.4
; printing object balljoint v1.stl id:0 copy 0
G1 X126.627 Y95.93 F10800
G1 Z.4 F720
G1 E.8 F2100
;TYPE:Support material
G1 F2700
G1 X127 Y95.93 E.00556
G1 X127 Y95.738 E.00287
G1 X123 Y95.738 E.05963
G1 X123 Y95.422 E.0047
G1 X122.684 Y95.422 E.0047
G1 X122.684 Y95.39 E.00048
;HEIGHT:0.2
G1 X122.684 Y93.422 E.05515
G1 X127.316 Y93.422 E.12981
G1 X127.316 Y91.106 E.0649
G1 X122.684 Y91.106 E.12981
G1 X122.684 Y88.791 E.0649
G1 X127.316 Y88.791 E.12981
G1 X127.316 Y86.475 E.0649
G1 X122.684 Y86.475 E.12981
;WIPE_START
G1 F8640
G1 X125.976 Y86.475 E-.76
;WIPE_END
G1 E-.04 F2100
M73 P10 R15
G1 Z.8 F720
G1 X129.947 Y95.738 F10800
G1 Z.4 F720
M73 Q10 S15
G1 E.8 F2100
;HEIGHT:0.1
G1 F2700
G1 X129.979 Y95.738 E.00048
;HEIGHT:0.2
G1 X131.947 Y95.738 E.05515
G1 X131.947 Y98.053 E.0649
G1 X129.979 Y98.053 E.05515
;HEIGHT:0.1
