; generated by PrusaSlicer 2.4.2+arm64 on 2022-07-30 at 19:07:51 UTC

; 

; external perimeters extrusion width = 0.60mm
; perimeters extrusion width = 0.50mm
; infill extrusion width = 0.50mm
; solid infill extrusion width = 0.50mm
; top infill extrusion width = 0.45mm
; support material extrusion width = 0.38mm
; first layer extrusion width = 0.42mm

M73 P0 R141
M73 Q0 S142
M201 X1000 Y1000 Z200 E5000 ; sets maximum accelerations, mm/sec^2
M203 X200 Y200 Z12 E120 ; sets maximum feedrates, mm / sec
M204 P1250 R1250 T1250 ; sets acceleration (P, T) and retract acceleration (R), mm/sec^2
M205 X8.00 Y8.00 Z0.40 E4.50 ; sets the jerk limits, mm/sec
M205 S0 T0 ; sets the minimum extruding and travel feed rate, mm/sec
M107
;TYPE:Custom
M862.3 P "MK3S" ; printer model check
M862.1 P0.4 ; nozzle diameter check
M115 U3.10.1 ; tell printer latest fw version
G90 ; use absolute coordinates
M83 ; extruder relative mode
M104 S215 ; set extruder temp
M140 S60 ; set bed temp
M190 S60 ; wait for bed temp
M109 S215 ; wait for extruder temp
G28 W ; home all without mesh bed level
G80 ; mesh bed leveling
G1 Z0.2 F720
G1 Y-3 F1000 ; go outside print area
G92 E0
G1 X60 E9 F1000 ; intro line
G1 X100 E12.5 F1000 ; intro line
G92 E0
M221 S95

; Don't change E values below. Excessive value can damage the printer.

M907 E538 ; set extruder motor current
G21 ; set units to millimeters
G90 ; use absolute coordinates
M83 ; use relative distances for extrusion
M900 K0.05 ; Filament gcode LA 1.5
M900 K30 ; Filament gcode LA 1.0
M107
;LAYER_CHANGE
;Z:0.2
;HEIGHT:0.2
;BEFORE_LAYER_CHANGE
G92 E0.0
;0.2


G1 E-.8 F2100
M73 Q0 S141
G1 Z.4 F720
;AFTER_LAYER_CHANGE
;0.2
G1 X53.96 Y65.135 F10800
G1 Z.2 F720
G1 E.8 F2100
M204 S800
;TYPE:Skirt/Brim
;WIDTH:0.42
G1 F1200
G1 X54.899 Y64.941 E.03008
G1 X195.101 Y64.941 E4.39592
G1 X196.408 Y65.333 E.04278
M73 P0 R140
G1 X197.284 Y66.378 E.04278
G1 X197.478 Y67.318 E.03008
G1 X197.478 Y142.682 E2.36299
G1 X197.086 Y143.989 E.04278
G1 X196.04 Y144.865 E.04278
G1 X195.101 Y145.059 E.03008
G1 X54.899 Y145.059 E4.39592
G1 X53.592 Y144.668 E.04278
G1 X52.716 Y143.622 E.04278
G1 X52.522 Y142.682 E.03008
G1 X52.522 Y67.318 E2.36299
G1 X52.914 Y66.011 E.04278
G1 X53.914 Y65.173 E.0409
M204 S1000
; printing object digilogue case w hinge v1.stl id:0 copy 0
;WIPE_START
G1 F8640
G1 X54.899 Y64.941 E-.23384
G1 X57.178 Y64.941 E-.52616
;WIPE_END
G1 E-.04 F2100
G1 Z.6 F720
G1 X93.348 Y97.377 F10800
G1 Z.2 F720
G1 E.8 F2100
M204 S800
;TYPE:Support material
G1 F1200
G1 X93.348 Y98.569 E.03739
G1 X90.924 Y100.884 E.10507
G1 X86.643 Y100.884 E.13424
G1 X86.441 Y100.963 E.00679
G1 X86.221 Y101.169 E.00946
G1 X86.221 Y99.369 E.05644
G1 X91.004 Y99.369 E.14997
G1 X91.338 Y99.035 E.01481
G1 X91.338 Y96.83 E.06915
G1 X91.004 Y96.496 E.01481
G1 X88.587 Y96.496 E.07579
G1 X88.587 Y96.178 E.00997
G1 X92.297 Y96.178 E.11635
G1 X93.31 Y97.334 E.0482
M204 S1000
G1 X92.739 Y98.916 F10800
M204 S800
G1 F1200
G1 X92.739 Y97.197 E.0539
G1 X92.32 Y96.719 E.01994
G1 X92.32 Y99.081 E.07409
G1 X91.901 Y99.482 E.01817
G1 X91.901 Y96.517 E.09295
G1 X91.505 Y96.517 E.01241
G1 X91.677 Y96.689 E.00763
G1 X91.677 Y99.176 E.07796
G1 X91.482 Y99.371 E.00865
G1 X91.482 Y99.882 E.01602
G1 X91.063 Y100.282 E.01817
G1 X91.063 Y99.708 E.01799
G1 X90.644 Y99.708 E.01314
G1 X90.644 Y100.544 E.02621
G1 X90.225 Y100.544 E.01314
G1 X90.225 Y99.708 E.02621
G1 X89.806 Y99.708 E.01314
G1 X89.806 Y100.544 E.02621
G1 X89.387 Y100.544 E.01314
G1 X89.387 Y99.708 E.02621
G1 X88.968 Y99.708 E.01314
G1 X88.968 Y100.544 E.02621
G1 X88.549 Y100.544 E.01314
G1 X88.549 Y99.708 E.02621
G1 X88.13 Y99.708 E.01314
G1 X88.13 Y100.544 E.02621
G1 X87.711 Y100.544 E.01314
G1 X87.711 Y99.708 E.02621
G1 X87.292 Y99.708 E.01314
G1 X87.292 Y100.544 E.02621
G1 X86.873 Y100.544 E.01314
G1 X86.873 Y99.539 E.03153
M204 S1000
;WIPE_START
G1 F8640
G1 X86.873 Y100.544 E-.23222
G1 X87.292 Y100.544 E-.09674
G1 X87.292 Y99.708 E-.19304
G1 X87.711 Y99.708 E-.09674
G1 X87.711 Y100.32 E-.14126
;WIPE_END
G1 E-.04 F2100
G1 Z.6 F720
G1 X96.057 Y100.677 F10800
G1 Z.2 F720
G1 E.8 F2100
M204 S800
G1 F1200
G1 X95.701 Y100.677 E.01118
G1 X96.057 Y100.34 E.0154
G1 X96.057 Y100.621 E.00882
M204 S1000
;WIPE_START
G1 F8640
G1 X96.057 Y100.34 E-.06497
G1 X95.701 Y100.677 E-.1134
G1 X96.057 Y100.677 E-.0823
;WIPE_END
G1 E-.53933 F2100
G1 Z.6 F720
G1 X99.274 Y99.307 F10800
G1 Z.2 F720
G1 E.8 F2100
M204 S800
G1 F1200
G1 X99.274 Y97.302 E.06288
G1 X100.165 Y96.412 E.03948
G1 X102.345 Y96.412 E.06836
G1 X99.315 Y99.269 E.13056
M204 S1000
G1 X101.118 Y97.335 F10800
M204 S800
G1 F1200
G1 X101.118 Y96.751 E.01831
G1 X100.699 Y96.751 E.01314
G1 X100.699 Y97.497 E.02339
G1 X100.28 Y97.892 E.01806
G1 X100.28 Y96.776 E.035
G1 X99.861 Y97.195 E.01858
G1 X99.861 Y98.521 E.04156
M204 S1000
;WIPE_START
G1 F8640
G1 X99.861 Y97.195 E-.3061
G1 X100.28 Y96.776 E-.13682
G1 X100.28 Y97.892 E-.25775
G1 X100.467 Y97.716 E-.05934
;WIPE_END
G1 E-.04 F2100
G1 Z.6 F720
G1 X103.595 Y100.583 F10800
G1 Z.2 F720
G1 E.8 F2100
M204 S800
G1 F1200
G1 X102.693 Y101.475 E.03978
G1 X100.514 Y101.475 E.06833
G1 X103.595 Y98.577 E.13263
G1 X103.595 Y100.527 E.06112
M204 S1000
G1 X103.213 Y100.722 F10800
M204 S800
G1 F1200
G1 X103.213 Y99.402 E.04139
G1 X102.794 Y99.796 E.01803
G1 X102.794 Y100.898 E.03454
G1 X102.553 Y101.136 E.01062
G1 X102.375 Y101.136 E.00559
G1 X102.375 Y100.19 E.02965
G1 X101.956 Y100.584 E.01803
G1 X101.956 Y101.136 E.01729
G1 X101.537 Y101.136 E.01314
G1 X101.537 Y100.745 E.01224
M204 S1000
;WIPE_START
G1 F8640
G1 X101.537 Y101.136 E-.09015
G1 X101.956 Y101.136 E-.09674
G1 X101.956 Y100.584 E-.12735
G1 X102.375 Y100.19 E-.13281
G1 X102.375 Y101.136 E-.21834
G1 X102.553 Y101.136 E-.04115
G1 X102.718 Y100.973 E-.05347
;WIPE_END
G1 E-.04 F2100
G1 Z.6 F720
G1 X98.574 Y111.407 F10800
G1 Z.2 F720
G1 E.8 F2100
M204 S800
G1 F1200
G1 X98.574 Y112.599 E.03739
G1 X96.151 Y114.914 E.10507
G1 X91.87 Y114.914 E.13424
G1 X91.668 Y114.993 E.00679
G1 X91.448 Y115.199 E.00946
G1 X91.448 Y113.399 E.05644
G1 X96.231 Y113.399 E.14997
G1 X96.565 Y113.065 E.01481
G1 X96.565 Y110.86 E.06915
G1 X96.231 Y110.526 E.01481
G1 X93.814 Y110.526 E.07579
G1 X93.814 Y110.208 E.00997
G1 X97.524 Y110.208 E.11635
G1 X98.537 Y111.364 E.0482
M204 S1000
G1 X98.185 Y112.736 F10800
M204 S800
G1 F1200
G1 X98.185 Y111.478 E.03946
G1 X97.766 Y111 E.01994
G1 X97.766 Y112.902 E.05964
G1 X97.348 Y113.302 E.01817
G1 X97.348 Y110.547 E.08637
G1 X96.929 Y110.547 E.01314
G1 X96.929 Y113.702 E.09891
G1 X96.51 Y114.102 E.01817
G1 X96.51 Y113.6 E.01574
G1 X96.371 Y113.739 E.00613
G1 X96.091 Y113.739 E.0088
G1 X96.091 Y114.503 E.02395
G1 X96.015 Y114.575 E.00327
G1 X95.672 Y114.575 E.01077
G1 X95.672 Y113.739 E.02621
G1 X95.253 Y113.739 E.01314
G1 X95.253 Y114.575 E.02621
G1 X94.834 Y114.575 E.01314
G1 X94.834 Y113.739 E.02621
G1 X94.415 Y113.739 E.01314
G1 X94.415 Y114.575 E.02621
G1 X93.996 Y114.575 E.01314
G1 X93.996 Y113.739 E.02621
G1 X93.577 Y113.739 E.01314
G1 X93.577 Y114.575 E.02621
G1 X93.158 Y114.575 E.01314
G1 X93.158 Y113.739 E.02621
G1 X92.739 Y113.739 E.01314
G1 X92.739 Y114.575 E.02621
G1 X92.32 Y114.575 E.01314
G1 X92.32 Y113.739 E.02621
G1 X91.901 Y113.739 E.01314
G1 X91.901 Y114.744 E.03153
M204 S1000
;WIPE_START
G1 F8640
G1 X91.901 Y113.739 E-.23222
G1 X92.32 Y113.739 E-.09674
G1 X92.32 Y114.575 E-.19304
G1 X92.739 Y114.575 E-.09674
G1 X92.739 Y113.963 E-.14126
;WIPE_END
G1 E-.04 F2100
G1 Z.6 F720
G1 X101.27 Y114.708 F10800
G1 Z.2 F720
G1 E.8 F2100
M204 S800
G1 F1200
G1 X100.928 Y114.708 E.01074
G1 X101.27 Y114.383 E.0148
G1 X101.27 Y114.651 E.00841
M204 S1000
;WIPE_START
G1 F8640
G1 X101.27 Y114.383 E-.06196
G1 X100.928 Y114.708 E-.10903
G1 X101.27 Y114.708 E-.07913
;WIPE_END
G1 E-.54989 F2100
G1 Z.6 F720
G1 X112.426 Y115.739 F10800
G1 Z.2 F720
G1 E.8 F2100
M204 S800
G1 F1200
G1 X108.713 Y115.739 E.1164
G1 X108.298 Y115.27 E.01965
G1 X111.568 Y115.27 E.10251
G1 X111.902 Y114.936 E.01481
G1 X111.902 Y111.033 E.12237
G1 X112.426 Y111.033 E.01644
G1 X112.426 Y115.683 E.14578
M204 S1000
G1 X112.012 Y115.57 F10800
M204 S800
G1 F1200
G1 X112.012 Y115.066 E.0158
M204 S1000
;WIPE_START
G1 F8640
G1 X112.012 Y115.57 E-.11632
;WIPE_END
G1 E-.68368 F2100
G1 Z.6 F720
G1 X195.101 Y142.682 F10800
G1 Z.2 F720
G1 E.8 F2100
M204 S800
G1 F1200
G1 X54.899 Y142.682 E4.39592
G1 X54.899 Y67.318 E2.36299
G1 X195.101 Y67.318 E4.39592
G1 X195.101 Y142.625 E2.36121
M204 S1000
;WIPE_START
G1 F8640
G1 X195.101 Y139.334 E-.76
;WIPE_END
G1 E-.04 F2100
G1 Z.6 F720
G1 X88.097 Y107.404 F10800
G1 Z.2 F720
M73 Q0 S140
G1 E.8 F2100
M204 S800
G1 F1200
G1 X87.763 Y107.738 E.01481
G1 X87.763 Y115.418 E.2408
G1 X87.781 Y115.436 E.00081
G1 X87.763 Y115.454 E.00081
G1 X87.763 Y116.038 E.01829
G1 X87.85 Y116.247 E.00711
G1 X88.034 Y116.432 E.00819
G1 X90.101 Y118.498 E.09163
G1 X90.31 Y118.585 E.00711
G1 X91.114 Y118.585 E.02519
G1 X91.242 Y118.457 E.00569
G1 X91.329 Y118.544 E.00386
G1 X96.764 Y118.544 E.17041
G1 X96.968 Y118.463 E.00686
G1 X97.502 Y117.956 E.02307
G1 X97.502 Y118.21 E.00795
G1 X97.835 Y118.544 E.01481
G1 X101.403 Y118.544 E.11184
G1 X101.736 Y118.21 E.01481
G1 X101.736 Y116.626 E.04965
G1 X103.608 Y118.498 E.083
G1 X103.818 Y118.585 E.00711
G1 X104.621 Y118.585 E.02519
G1 X104.955 Y118.251 E.01481
G1 X104.955 Y116.225 E.06351
G1 X106.914 Y118.443 E.09277
G1 X107.137 Y118.544 E.00769
G1 X113.537 Y118.544 E.20065
G1 X113.726 Y118.475 E.00632
G1 X115.124 Y117.297 E.05731
G1 X115.23 Y117.068 E.0079
G1 X115.23 Y107.738 E.29255
G1 X114.896 Y107.404 E.01481
G1 X109.475 Y107.404 E.16997
G1 X109.272 Y107.484 E.00685
G1 X104.955 Y111.565 E.18625
G1 X104.955 Y107.738 E.12
G1 X104.621 Y107.404 E.01481
G1 X101.604 Y107.404 E.09459
G1 X101.27 Y107.738 E.01481
G1 X101.27 Y109.706 E.06173
G1 X99.325 Y107.505 E.09212
G1 X99.102 Y107.404 E.00769
G1 X92.69 Y107.404 E.20105
G1 X92.502 Y107.472 E.00626
G1 X91.448 Y108.348 E.04299
G1 X91.448 Y107.738 E.01914
G1 X91.114 Y107.404 E.01481
G1 X88.153 Y107.404 E.09282
M204 S1000
;WIPE_START
G1 F8640
G1 X91.114 Y107.404 E-.68355
G1 X91.348 Y107.638 E-.07645
;WIPE_END
G1 E-.04 F2100
G1 Z.6 F720
G1 X67.27 Y93.373 F10800
G1 Z.2 F720
G1 E.8 F2100
M204 S800
G1 F1200
G1 X67.082 Y93.441 E.00626
G1 X65.684 Y94.604 E.05703
G1 X65.576 Y94.834 E.00797
G1 X65.576 Y98.169 E.10454
G1 X65.91 Y98.502 E.01481
G1 X68.046 Y98.502 E.06699
G1 X68.38 Y98.169 E.01481
G1 X68.38 Y96.178 E.06242
G1 X72.093 Y96.178 E.11641
G1 X72.375 Y96.496 E.01333
G1 X69.211 Y96.496 E.09921
G1 X68.877 Y96.83 E.01481
G1 X68.877 Y99.035 E.06915
G1 X69.211 Y99.369 E.01481
G1 X72.303 Y99.369 E.09696
G1 X70.718 Y100.884 E.06875
G1 X66.434 Y100.884 E.13432
G1 X66.229 Y100.967 E.00695
G1 X65.666 Y101.509 E.0245
G1 X65.576 Y101.723 E.00727
G1 X65.576 Y104.18 E.07703
G1 X65.91 Y104.513 E.01481
G1 X71.331 Y104.513 E.16998
G1 X71.534 Y104.432 E.00686
M73 P0 R139
G1 X75.851 Y100.34 E.18651
G1 X75.851 Y104.18 E.1204
G1 X76.185 Y104.513 E.01481
G1 X77.044 Y104.513 E.02694
G1 X77.209 Y104.462 E.00543
G1 X78.896 Y103.302 E.06419
G1 X79.027 Y103.053 E.00882
G1 X79.027 Y99.452 E.11291
G1 X79.092 Y99.452 E.00204
G1 X79.426 Y99.118 E.01481
G1 X79.426 Y96.178 E.09218
G1 X82.632 Y96.178 E.10054
G1 X82.632 Y99.118 E.09218
G1 X82.966 Y99.452 E.01481
G1 X83.045 Y99.452 E.00247
G1 X83.045 Y103.052 E.11289
G1 X83.175 Y103.3 E.00878
G1 X84.847 Y104.461 E.06383
G1 X85.013 Y104.513 E.00547
G1 X85.887 Y104.513 E.02739
G1 X85.995 Y104.406 E.00478
G1 X86.102 Y104.513 E.00478
G1 X91.537 Y104.513 E.17041
G1 X91.741 Y104.432 E.00686
G1 X92.275 Y103.926 E.02307
G1 X92.275 Y104.18 E.00795
G1 X92.609 Y104.513 E.01481
G1 X96.176 Y104.513 E.11184
G1 X96.283 Y104.406 E.00478
G1 X96.391 Y104.513 E.00478
G1 X104.472 Y104.513 E.25336
G1 X104.682 Y104.426 E.00714
G1 X106.712 Y102.381 E.09037
G1 X106.798 Y102.172 E.00708
G1 X106.798 Y96.374 E.18179
G1 X107.019 Y96.58 E.00946
G1 X107.221 Y96.659 E.00679
G1 X110.197 Y96.659 E.09331
G1 X111.418 Y97.816 E.05275
G1 X111.621 Y97.897 E.00686
G1 X112.041 Y97.897 E.01316
G1 X112.041 Y102.87 E.1559
G1 X112.142 Y103.093 E.0077
G1 X113.701 Y104.467 E.06517
G1 X113.896 Y104.541 E.00653
G1 X114.896 Y104.541 E.03137
G1 X115.23 Y104.207 E.01481
G1 X115.23 Y97.765 E.20198
G1 X115.164 Y97.58 E.00617
G1 X114.672 Y96.976 E.02444
G1 X114.896 Y96.976 E.00702
G1 X115.23 Y96.642 E.01481
G1 X115.23 Y93.707 E.09201
G1 X114.896 Y93.373 E.01481
G1 X112.306 Y93.373 E.08122
G1 X111.994 Y93.685 E.01383
G1 X111.83 Y93.484 E.00815
G1 X111.598 Y93.373 E.00806
G1 X106.68 Y93.373 E.15419
G1 X106.572 Y93.481 E.00478
G1 X106.464 Y93.373 E.00478
G1 X98.399 Y93.373 E.25289
G1 X98.19 Y93.459 E.00708
G1 X96.145 Y95.49 E.09037
G1 X96.06 Y95.694 E.00695
G1 X94.099 Y93.474 E.09288
G1 X93.875 Y93.373 E.00769
G1 X87.463 Y93.373 E.20105
G1 X87.275 Y93.441 E.00626
G1 X85.895 Y94.589 E.05628
G1 X84.877 Y93.471 E.04741
G1 X84.657 Y93.373 E.00755
G1 X77.4 Y93.373 E.22753
G1 X77.179 Y93.472 E.00761
G1 X75.927 Y94.865 E.05872
G1 X75.851 Y95.062 E.00662
G1 X75.851 Y95.692 E.01974
G1 X73.892 Y93.474 E.09277
G1 X73.669 Y93.373 E.00769
G1 X67.327 Y93.373 E.19885
M204 S1000
;WIPE_START
G1 F8640
G1 X70.618 Y93.373 E-.76
;WIPE_END
G1 E-.04 F2100
G1 Z.6 F720
G1 X194.55 Y142.512 F10800
G1 Z.2 F720
G1 E.8 F2100
M204 S800
G1 F1200
G1 X194.55 Y67.657 E2.34702
G1 X194.131 Y67.657 E.01314
M73 P1 R139
M73 Q1 S140
G1 X194.131 Y142.343 E2.3417
G1 X193.712 Y142.343 E.01314
G1 X193.712 Y67.657 E2.3417
G1 X193.293 Y67.657 E.01314
G1 X193.293 Y142.343 E2.3417
G1 X192.874 Y142.343 E.01314
G1 X192.874 Y67.657 E2.3417
G1 X192.455 Y67.657 E.01314
G1 X192.455 Y142.343 E2.3417
G1 X192.036 Y142.343 E.01314
G1 X192.036 Y67.657 E2.3417
G1 X191.617 Y67.657 E.01314
G1 X191.617 Y142.343 E2.3417
G1 X191.198 Y142.343 E.01314
G1 X191.198 Y67.657 E2.3417
G1 X190.779 Y67.657 E.01314
G1 X190.779 Y142.343 E2.3417
G1 X190.36 Y142.343 E.01314
G1 X190.36 Y67.657 E2.3417
G1 X189.941 Y67.657 E.01314
G1 X189.941 Y142.343 E2.3417
G1 X189.522 Y142.343 E.01314
M73 Q1 S139
G1 X189.522 Y67.657 E2.3417
G1 X189.103 Y67.657 E.01314
G1 X189.103 Y142.343 E2.3417
G1 X188.685 Y142.343 E.01314
M73 P1 R138
G1 X188.685 Y67.657 E2.3417
G1 X188.266 Y67.657 E.01314
G1 X188.266 Y142.343 E2.3417
G1 X187.847 Y142.343 E.01314
G1 X187.847 Y67.657 E2.3417
G1 X187.428 Y67.657 E.01314
G1 X187.428 Y142.343 E2.3417
G1 X187.009 Y142.343 E.01314
G1 X187.009 Y67.657 E2.3417
G1 X186.59 Y67.657 E.01314
G1 X186.59 Y142.343 E2.3417
G1 X186.171 Y142.343 E.01314
G1 X186.171 Y67.657 E2.3417
G1 X185.752 Y67.657 E.01314
G1 X185.752 Y142.343 E2.3417
G1 X185.333 Y142.343 E.01314
G1 X185.333 Y67.657 E2.3417
G1 X184.914 Y67.657 E.01314
G1 X184.914 Y142.343 E2.3417
G1 X184.495 Y142.343 E.01314
M73 P2 R138
M73 Q2 S139
G1 X184.495 Y67.657 E2.3417
G1 X184.076 Y67.657 E.01314
G1 X184.076 Y142.343 E2.3417
G1 X183.657 Y142.343 E.01314
G1 X183.657 Y67.657 E2.3417
G1 X183.238 Y67.657 E.01314
G1 X183.238 Y142.343 E2.3417
G1 X182.819 Y142.343 E.01314
M73 Q2 S138
G1 X182.819 Y67.657 E2.3417
G1 X182.4 Y67.657 E.01314
G1 X182.4 Y142.343 E2.3417
G1 X181.981 Y142.343 E.01314
M73 P2 R137
G1 X181.981 Y67.657 E2.3417
G1 X181.562 Y67.657 E.01314
G1 X181.562 Y142.343 E2.3417
G1 X181.143 Y142.343 E.01314
G1 X181.143 Y67.657 E2.3417
G1 X180.724 Y67.657 E.01314
G1 X180.724 Y142.343 E2.3417
G1 X180.305 Y142.343 E.01314
G1 X180.305 Y67.657 E2.3417
G1 X179.886 Y67.657 E.01314
G1 X179.886 Y142.343 E2.3417
G1 X179.467 Y142.343 E.01314
G1 X179.467 Y67.657 E2.3417
G1 X179.048 Y67.657 E.01314
G1 X179.048 Y142.343 E2.3417
G1 X178.629 Y142.343 E.01314
G1 X178.629 Y67.657 E2.3417
G1 X178.21 Y67.657 E.01314
G1 X178.21 Y142.343 E2.3417
G1 X177.791 Y142.343 E.01314
G1 X177.791 Y67.657 E2.3417
G1 X177.372 Y67.657 E.01314
G1 X177.372 Y142.343 E2.3417
G1 X176.953 Y142.343 E.01314
G1 X176.953 Y67.657 E2.3417
G1 X176.534 Y67.657 E.01314
G1 X176.534 Y142.343 E2.3417
G1 X176.115 Y142.343 E.01314
M73 Q2 S137
G1 X176.115 Y67.657 E2.3417
G1 X175.696 Y67.657 E.01314
G1 X175.696 Y142.343 E2.3417
G1 X175.277 Y142.343 E.01314
M73 P3 R136
M73 Q3 S137
G1 X175.277 Y67.657 E2.3417
G1 X174.858 Y67.657 E.01314
G1 X174.858 Y142.343 E2.3417
G1 X174.439 Y142.343 E.01314
