; generated by PrusaSlicer 2.4.2+arm64 on 2022-07-30 at 03:22:52 UTC

; 

; external perimeters extrusion width = 0.60mm
; perimeters extrusion width = 0.50mm
; infill extrusion width = 0.50mm
; solid infill extrusion width = 0.50mm
; top infill extrusion width = 0.45mm
; support material extrusion width = 0.38mm
; first layer extrusion width = 0.42mm

M73 P0 R171
M73 Q0 S171
M201 X1000 Y1000 Z200 E5000 ; sets maximum accelerations, mm/sec^2
M203 X200 Y200 Z12 E120 ; sets maximum feedrates, mm / sec
M204 P1250 R1250 T1250 ; sets acceleration (P, T) and retract acceleration (R), mm/sec^2
M205 X8.00 Y8.00 Z0.40 E4.50 ; sets the jerk limits, mm/sec
M205 S0 T0 ; sets the minimum extruding and travel feed rate, mm/sec
M107
;TYPE:Custom
M862.3 P "MK3S" ; printer model check
M862.1 P0.4 ; nozzle diameter check
M115 U3.10.1 ; tell printer latest fw version
G90 ; use absolute coordinates
M83 ; extruder relative mode
M104 S215 ; set extruder temp
M140 S60 ; set bed temp
M190 S60 ; wait for bed temp
M109 S215 ; wait for extruder temp
G28 W ; home all without mesh bed level
G80 ; mesh bed leveling
G1 Z0.2 F720
G1 Y-3 F1000 ; go outside print area
G92 E0
G1 X60 E9 F1000 ; intro line
G1 X100 E12.5 F1000 ; intro line
G92 E0
M221 S95

; Don't change E values below. Excessive value can damage the printer.

M907 E538 ; set extruder motor current
G21 ; set units to millimeters
G90 ; use absolute coordinates
M83 ; use relative distances for extrusion
M900 K0.05 ; Filament gcode LA 1.5
M900 K30 ; Filament gcode LA 1.0
M107
;LAYER_CHANGE
;Z:0.2
;HEIGHT:0.2
;BEFORE_LAYER_CHANGE
G92 E0.0
;0.2


G1 E-.8 F2100
G1 Z.4 F720
;AFTER_LAYER_CHANGE
;0.2
G1 X91.415 Y69.593 F10800
G1 Z.2 F720
G1 E.8 F2100
M204 S800
;TYPE:Skirt/Brim
;WIDTH:0.42
G1 F1200
G1 X92.102 Y68.909 E.03042
G1 X97.598 Y65.327 E.20569
G1 X98.896 Y64.941 E.04245
G1 X151.104 Y64.941 E1.63694
G1 X152.402 Y65.327 E.04245
M73 P0 R170
G1 X157.898 Y68.909 E.20569
G1 X158.779 Y69.95 E.04278
G1 X158.977 Y70.9 E.03042
G1 X158.977 Y139.1 E2.13836
G1 X158.585 Y140.407 E.04278
G1 X157.898 Y141.091 E.03042
G1 X152.402 Y144.673 E.20569
G1 X151.104 Y145.059 E.04245
G1 X98.896 Y145.059 E1.63694
G1 X97.598 Y144.673 E.04245
G1 X92.102 Y141.091 E.20569
G1 X91.221 Y140.05 E.04278
G1 X91.023 Y139.1 E.03042
G1 X91.023 Y70.9 E2.13836
G1 X91.397 Y69.65 E.0409
M204 S1000
; printing object digilogue case v6.stl id:0 copy 0
;WIPE_START
G1 F8640
G1 X92.102 Y68.909 E-.23629
G1 X94.002 Y67.67 E-.52371
;WIPE_END
G1 E-.04 F2100
G1 Z.6 F720
G1 X151.104 Y70.33 F10800
G1 Z.2 F720
G1 E.8 F2100
M204 S800
;TYPE:Support material
G1 F1200
G1 X98.896 Y70.33 E1.63694
G1 X98.896 Y67.318 E.09444
G1 X151.104 Y67.318 E1.63694
G1 X151.104 Y70.273 E.09267
M204 S1000
G1 X150.558 Y70.16 F10800
M204 S800
G1 F1200
G1 X150.558 Y67.657 E.07848
G1 X150.139 Y67.657 E.01314
G1 X150.139 Y69.991 E.07316
G1 X149.72 Y69.991 E.01314
G1 X149.72 Y67.657 E.07316
G1 X149.301 Y67.657 E.01314
G1 X149.301 Y69.991 E.07316
G1 X148.882 Y69.991 E.01314
G1 X148.882 Y67.657 E.07316
G1 X148.463 Y67.657 E.01314
G1 X148.463 Y69.991 E.07316
G1 X148.044 Y69.991 E.01314
G1 X148.044 Y67.657 E.07316
G1 X147.625 Y67.657 E.01314
G1 X147.625 Y69.991 E.07316
G1 X147.206 Y69.991 E.01314
G1 X147.206 Y67.657 E.07316
G1 X146.787 Y67.657 E.01314
G1 X146.787 Y69.991 E.07316
G1 X146.368 Y69.991 E.01314
G1 X146.368 Y67.657 E.07316
G1 X145.949 Y67.657 E.01314
G1 X145.949 Y69.991 E.07316
G1 X145.53 Y69.991 E.01314
G1 X145.53 Y67.657 E.07316
G1 X145.111 Y67.657 E.01314
G1 X145.111 Y69.991 E.07316
G1 X144.692 Y69.991 E.01314
G1 X144.692 Y67.657 E.07316
G1 X144.273 Y67.657 E.01314
G1 X144.273 Y69.991 E.07316
G1 X143.854 Y69.991 E.01314
G1 X143.854 Y67.657 E.07316
G1 X143.435 Y67.657 E.01314
G1 X143.435 Y69.991 E.07316
G1 X143.016 Y69.991 E.01314
G1 X143.016 Y67.657 E.07316
G1 X142.597 Y67.657 E.01314
G1 X142.597 Y69.991 E.07316
G1 X142.178 Y69.991 E.01314
G1 X142.178 Y67.657 E.07316
G1 X141.759 Y67.657 E.01314
G1 X141.759 Y69.991 E.07316
G1 X141.34 Y69.991 E.01314
G1 X141.34 Y67.657 E.07316
G1 X140.921 Y67.657 E.01314
G1 X140.921 Y69.991 E.07316
G1 X140.502 Y69.991 E.01314
G1 X140.502 Y67.657 E.07316
G1 X140.083 Y67.657 E.01314
G1 X140.083 Y69.991 E.07316
G1 X139.664 Y69.991 E.01314
G1 X139.664 Y67.657 E.07316
G1 X139.245 Y67.657 E.01314
G1 X139.245 Y69.991 E.07316
G1 X138.826 Y69.991 E.01314
G1 X138.826 Y67.657 E.07316
G1 X138.407 Y67.657 E.01314
G1 X138.407 Y69.991 E.07316
G1 X137.988 Y69.991 E.01314
G1 X137.988 Y67.657 E.07316
G1 X137.569 Y67.657 E.01314
G1 X137.569 Y69.991 E.07316
G1 X137.15 Y69.991 E.01314
G1 X137.15 Y67.657 E.07316
G1 X136.731 Y67.657 E.01314
G1 X136.731 Y69.991 E.07316
G1 X136.312 Y69.991 E.01314
G1 X136.312 Y67.657 E.07316
G1 X135.893 Y67.657 E.01314
G1 X135.893 Y69.991 E.07316
G1 X135.474 Y69.991 E.01314
G1 X135.474 Y67.657 E.07316
G1 X135.055 Y67.657 E.01314
G1 X135.055 Y69.991 E.07316
G1 X134.636 Y69.991 E.01314
G1 X134.636 Y67.657 E.07316
G1 X134.217 Y67.657 E.01314
G1 X134.217 Y69.991 E.07316
G1 X133.799 Y69.991 E.01314
G1 X133.799 Y67.657 E.07316
G1 X133.38 Y67.657 E.01314
G1 X133.38 Y69.991 E.07316
G1 X132.961 Y69.991 E.01314
G1 X132.961 Y67.657 E.07316
G1 X132.542 Y67.657 E.01314
G1 X132.542 Y69.991 E.07316
G1 X132.123 Y69.991 E.01314
G1 X132.123 Y67.657 E.07316
G1 X131.704 Y67.657 E.01314
G1 X131.704 Y69.991 E.07316
G1 X131.285 Y69.991 E.01314
G1 X131.285 Y67.657 E.07316
G1 X130.866 Y67.657 E.01314
G1 X130.866 Y69.991 E.07316
G1 X130.447 Y69.991 E.01314
G1 X130.447 Y67.657 E.07316
G1 X130.028 Y67.657 E.01314
G1 X130.028 Y69.991 E.07316
G1 X129.609 Y69.991 E.01314
G1 X129.609 Y67.657 E.07316
G1 X129.19 Y67.657 E.01314
G1 X129.19 Y69.991 E.07316
G1 X128.771 Y69.991 E.01314
G1 X128.771 Y67.657 E.07316
G1 X128.352 Y67.657 E.01314
G1 X128.352 Y69.991 E.07316
G1 X127.933 Y69.991 E.01314
G1 X127.933 Y67.657 E.07316
G1 X127.514 Y67.657 E.01314
G1 X127.514 Y69.991 E.07316
G1 X127.095 Y69.991 E.01314
G1 X127.095 Y67.657 E.07316
G1 X126.676 Y67.657 E.01314
G1 X126.676 Y69.991 E.07316
G1 X126.257 Y69.991 E.01314
G1 X126.257 Y67.657 E.07316
G1 X125.838 Y67.657 E.01314
G1 X125.838 Y69.991 E.07316
G1 X125.419 Y69.991 E.01314
G1 X125.419 Y67.657 E.07316
G1 X125 Y67.657 E.01314
G1 X125 Y69.991 E.07316
G1 X124.581 Y69.991 E.01314
G1 X124.581 Y67.657 E.07316
G1 X124.162 Y67.657 E.01314
G1 X124.162 Y69.991 E.07316
G1 X123.743 Y69.991 E.01314
G1 X123.743 Y67.657 E.07316
G1 X123.324 Y67.657 E.01314
G1 X123.324 Y69.991 E.07316
G1 X122.905 Y69.991 E.01314
G1 X122.905 Y67.657 E.07316
G1 X122.486 Y67.657 E.01314
G1 X122.486 Y69.991 E.07316
G1 X122.067 Y69.991 E.01314
G1 X122.067 Y67.657 E.07316
G1 X121.648 Y67.657 E.01314
G1 X121.648 Y69.991 E.07316
G1 X121.229 Y69.991 E.01314
G1 X121.229 Y67.657 E.07316
G1 X120.81 Y67.657 E.01314
G1 X120.81 Y69.991 E.07316
G1 X120.391 Y69.991 E.01314
G1 X120.391 Y67.657 E.07316
G1 X119.972 Y67.657 E.01314
G1 X119.972 Y69.991 E.07316
G1 X119.553 Y69.991 E.01314
G1 X119.553 Y67.657 E.07316
G1 X119.134 Y67.657 E.01314
G1 X119.134 Y69.991 E.07316
G1 X118.715 Y69.991 E.01314
G1 X118.715 Y67.657 E.07316
G1 X118.296 Y67.657 E.01314
G1 X118.296 Y69.991 E.07316
G1 X117.877 Y69.991 E.01314
G1 X117.877 Y67.657 E.07316
G1 X117.458 Y67.657 E.01314
G1 X117.458 Y69.991 E.07316
G1 X117.039 Y69.991 E.01314
G1 X117.039 Y67.657 E.07316
G1 X116.62 Y67.657 E.01314
G1 X116.62 Y69.991 E.07316
G1 X116.201 Y69.991 E.01314
G1 X116.201 Y67.657 E.07316
G1 X115.783 Y67.657 E.01314
G1 X115.783 Y69.991 E.07316
G1 X115.364 Y69.991 E.01314
G1 X115.364 Y67.657 E.07316
G1 X114.945 Y67.657 E.01314
G1 X114.945 Y69.991 E.07316
G1 X114.526 Y69.991 E.01314
G1 X114.526 Y67.657 E.07316
G1 X114.107 Y67.657 E.01314
G1 X114.107 Y69.991 E.07316
G1 X113.688 Y69.991 E.01314
G1 X113.688 Y67.657 E.07316
G1 X113.269 Y67.657 E.01314
G1 X113.269 Y69.991 E.07316
G1 X112.85 Y69.991 E.01314
G1 X112.85 Y67.657 E.07316
G1 X112.431 Y67.657 E.01314
G1 X112.431 Y69.991 E.07316
G1 X112.012 Y69.991 E.01314
G1 X112.012 Y67.657 E.07316
G1 X111.593 Y67.657 E.01314
G1 X111.593 Y69.991 E.07316
G1 X111.174 Y69.991 E.01314
G1 X111.174 Y67.657 E.07316
G1 X110.755 Y67.657 E.01314
G1 X110.755 Y69.991 E.07316
G1 X110.336 Y69.991 E.01314
G1 X110.336 Y67.657 E.07316
G1 X109.917 Y67.657 E.01314
G1 X109.917 Y69.991 E.07316
G1 X109.498 Y69.991 E.01314
G1 X109.498 Y67.657 E.07316
G1 X109.079 Y67.657 E.01314
G1 X109.079 Y69.991 E.07316
G1 X108.66 Y69.991 E.01314
G1 X108.66 Y67.657 E.07316
G1 X108.241 Y67.657 E.01314
G1 X108.241 Y69.991 E.07316
G1 X107.822 Y69.991 E.01314
G1 X107.822 Y67.657 E.07316
G1 X107.403 Y67.657 E.01314
G1 X107.403 Y69.991 E.07316
G1 X106.984 Y69.991 E.01314
G1 X106.984 Y67.657 E.07316
G1 X106.565 Y67.657 E.01314
G1 X106.565 Y69.991 E.07316
G1 X106.146 Y69.991 E.01314
G1 X106.146 Y67.657 E.07316
G1 X105.727 Y67.657 E.01314
G1 X105.727 Y69.991 E.07316
G1 X105.308 Y69.991 E.01314
G1 X105.308 Y67.657 E.07316
G1 X104.889 Y67.657 E.01314
G1 X104.889 Y69.991 E.07316
G1 X104.47 Y69.991 E.01314
G1 X104.47 Y67.657 E.07316
G1 X104.051 Y67.657 E.01314
G1 X104.051 Y69.991 E.07316
G1 X103.632 Y69.991 E.01314
G1 X103.632 Y67.657 E.07316
G1 X103.213 Y67.657 E.01314
G1 X103.213 Y69.991 E.07316
G1 X102.794 Y69.991 E.01314
G1 X102.794 Y67.657 E.07316
G1 X102.375 Y67.657 E.01314
G1 X102.375 Y69.991 E.07316
G1 X101.956 Y69.991 E.01314
G1 X101.956 Y67.657 E.07316
G1 X101.537 Y67.657 E.01314
G1 X101.537 Y69.991 E.07316
G1 X101.118 Y69.991 E.01314
G1 X101.118 Y67.657 E.07316
G1 X100.699 Y67.657 E.01314
G1 X100.699 Y69.991 E.07316
G1 X100.28 Y69.991 E.01314
G1 X100.28 Y67.657 E.07316
G1 X99.861 Y67.657 E.01314
G1 X99.861 Y69.991 E.07316
G1 X99.442 Y69.991 E.01314
G1 X99.442 Y67.488 E.07848
M204 S1000
;WIPE_START
G1 F8640
G1 X99.442 Y69.991 E-.57794
G1 X99.861 Y69.991 E-.09674
G1 X99.861 Y69.621 E-.08532
;WIPE_END
G1 E-.04 F2100
G1 Z.6 F720
G1 X151.104 Y142.682 F10800
G1 Z.2 F720
G1 E.8 F2100
M204 S800
G1 F1200
G1 X98.896 Y142.682 E1.63694
G1 X98.896 Y139.67 E.09444
G1 X151.104 Y139.67 E1.63694
G1 X151.104 Y142.625 E.09267
M204 S1000
G1 X150.558 Y142.512 F10800
M204 S800
G1 F1200
G1 X150.558 Y140.009 E.07848
G1 X150.139 Y140.009 E.01314
G1 X150.139 Y142.343 E.07316
G1 X149.72 Y142.343 E.01314
G1 X149.72 Y140.009 E.07316
G1 X149.301 Y140.009 E.01314
G1 X149.301 Y142.343 E.07316
G1 X148.882 Y142.343 E.01314
G1 X148.882 Y140.009 E.07316
G1 X148.463 Y140.009 E.01314
G1 X148.463 Y142.343 E.07316
G1 X148.044 Y142.343 E.01314
M73 Q0 S170
G1 X148.044 Y140.009 E.07316
G1 X147.625 Y140.009 E.01314
G1 X147.625 Y142.343 E.07316
G1 X147.206 Y142.343 E.01314
G1 X147.206 Y140.009 E.07316
G1 X146.787 Y140.009 E.01314
G1 X146.787 Y142.343 E.07316
G1 X146.368 Y142.343 E.01314
G1 X146.368 Y140.009 E.07316
G1 X145.949 Y140.009 E.01314
G1 X145.949 Y142.343 E.07316
G1 X145.53 Y142.343 E.01314
G1 X145.53 Y140.009 E.07316
G1 X145.111 Y140.009 E.01314
G1 X145.111 Y142.343 E.07316
G1 X144.692 Y142.343 E.01314
G1 X144.692 Y140.009 E.07316
G1 X144.273 Y140.009 E.01314
G1 X144.273 Y142.343 E.07316
G1 X143.854 Y142.343 E.01314
G1 X143.854 Y140.009 E.07316
G1 X143.435 Y140.009 E.01314
G1 X143.435 Y142.343 E.07316
G1 X143.016 Y142.343 E.01314
G1 X143.016 Y140.009 E.07316
G1 X142.597 Y140.009 E.01314
G1 X142.597 Y142.343 E.07316
G1 X142.178 Y142.343 E.01314
G1 X142.178 Y140.009 E.07316
G1 X141.759 Y140.009 E.01314
G1 X141.759 Y142.343 E.07316
G1 X141.34 Y142.343 E.01314
G1 X141.34 Y140.009 E.07316
G1 X140.921 Y140.009 E.01314
G1 X140.921 Y142.343 E.07316
G1 X140.502 Y142.343 E.01314
G1 X140.502 Y140.009 E.07316
G1 X140.083 Y140.009 E.01314
G1 X140.083 Y142.343 E.07316
G1 X139.664 Y142.343 E.01314
G1 X139.664 Y140.009 E.07316
G1 X139.245 Y140.009 E.01314
G1 X139.245 Y142.343 E.07316
G1 X138.826 Y142.343 E.01314
G1 X138.826 Y140.009 E.07316
G1 X138.407 Y140.009 E.01314
G1 X138.407 Y142.343 E.07316
G1 X137.988 Y142.343 E.01314
G1 X137.988 Y140.009 E.07316
G1 X137.569 Y140.009 E.01314
G1 X137.569 Y142.343 E.07316
G1 X137.15 Y142.343 E.01314
G1 X137.15 Y140.009 E.07316
G1 X136.731 Y140.009 E.01314
G1 X136.731 Y142.343 E.07316
G1 X136.312 Y142.343 E.01314
G1 X136.312 Y140.009 E.07316
G1 X135.893 Y140.009 E.01314
G1 X135.893 Y142.343 E.07316
G1 X135.474 Y142.343 E.01314
G1 X135.474 Y140.009 E.07316
G1 X135.055 Y140.009 E.01314
G1 X135.055 Y142.343 E.07316
G1 X134.636 Y142.343 E.01314
G1 X134.636 Y140.009 E.07316
G1 X134.217 Y140.009 E.01314
G1 X134.217 Y142.343 E.07316
G1 X133.799 Y142.343 E.01314
G1 X133.799 Y140.009 E.07316
G1 X133.38 Y140.009 E.01314
G1 X133.38 Y142.343 E.07316
G1 X132.961 Y142.343 E.01314
G1 X132.961 Y140.009 E.07316
G1 X132.542 Y140.009 E.01314
G1 X132.542 Y142.343 E.07316
G1 X132.123 Y142.343 E.01314
G1 X132.123 Y140.009 E.07316
G1 X131.704 Y140.009 E.01314
G1 X131.704 Y142.343 E.07316
G1 X131.285 Y142.343 E.01314
G1 X131.285 Y140.009 E.07316
G1 X130.866 Y140.009 E.01314
G1 X130.866 Y142.343 E.07316
G1 X130.447 Y142.343 E.01314
G1 X130.447 Y140.009 E.07316
G1 X130.028 Y140.009 E.01314
G1 X130.028 Y142.343 E.07316
G1 X129.609 Y142.343 E.01314
G1 X129.609 Y140.009 E.07316
G1 X129.19 Y140.009 E.01314
G1 X129.19 Y142.343 E.07316
G1 X128.771 Y142.343 E.01314
G1 X128.771 Y140.009 E.07316
G1 X128.352 Y140.009 E.01314
G1 X128.352 Y142.343 E.07316
G1 X127.933 Y142.343 E.01314
G1 X127.933 Y140.009 E.07316
G1 X127.514 Y140.009 E.01314
G1 X127.514 Y142.343 E.07316
G1 X127.095 Y142.343 E.01314
G1 X127.095 Y140.009 E.07316
G1 X126.676 Y140.009 E.01314
G1 X126.676 Y142.343 E.07316
G1 X126.257 Y142.343 E.01314
G1 X126.257 Y140.009 E.07316
G1 X125.838 Y140.009 E.01314
G1 X125.838 Y142.343 E.07316
G1 X125.419 Y142.343 E.01314
G1 X125.419 Y140.009 E.07316
G1 X125 Y140.009 E.01314
G1 X125 Y142.343 E.07316
G1 X124.581 Y142.343 E.01314
G1 X124.581 Y140.009 E.07316
G1 X124.162 Y140.009 E.01314
G1 X124.162 Y142.343 E.07316
G1 X123.743 Y142.343 E.01314
G1 X123.743 Y140.009 E.07316
G1 X123.324 Y140.009 E.01314
G1 X123.324 Y142.343 E.07316
G1 X122.905 Y142.343 E.01314
G1 X122.905 Y140.009 E.07316
G1 X122.486 Y140.009 E.01314
G1 X122.486 Y142.343 E.07316
G1 X122.067 Y142.343 E.01314
G1 X122.067 Y140.009 E.07316
G1 X121.648 Y140.009 E.01314
G1 X121.648 Y142.343 E.07316
G1 X121.229 Y142.343 E.01314
G1 X121.229 Y140.009 E.07316
G1 X120.81 Y140.009 E.01314
G1 X120.81 Y142.343 E.07316
G1 X120.391 Y142.343 E.01314
G1 X120.391 Y140.009 E.07316
G1 X119.972 Y140.009 E.01314
G1 X119.972 Y142.343 E.07316
G1 X119.553 Y142.343 E.01314
G1 X119.553 Y140.009 E.07316
G1 X119.134 Y140.009 E.01314
G1 X119.134 Y142.343 E.07316
G1 X118.715 Y142.343 E.01314
G1 X118.715 Y140.009 E.07316
G1 X118.296 Y140.009 E.01314
G1 X118.296 Y142.343 E.07316
G1 X117.877 Y142.343 E.01314
G1 X117.877 Y140.009 E.07316
G1 X117.458 Y140.009 E.01314
G1 X117.458 Y142.343 E.07316
G1 X117.039 Y142.343 E.01314
G1 X117.039 Y140.009 E.07316
G1 X116.62 Y140.009 E.01314
G1 X116.62 Y142.343 E.07316
G1 X116.201 Y142.343 E.01314
G1 X116.201 Y140.009 E.07316
G1 X115.783 Y140.009 E.01314
G1 X115.783 Y142.343 E.07316
G1 X115.364 Y142.343 E.01314
G1 X115.364 Y140.009 E.07316
G1 X114.945 Y140.009 E.01314
G1 X114.945 Y142.343 E.07316
G1 X114.526 Y142.343 E.01314
G1 X114.526 Y140.009 E.07316
G1 X114.107 Y140.009 E.01314
G1 X114.107 Y142.343 E.07316
G1 X113.688 Y142.343 E.01314
G1 X113.688 Y140.009 E.07316
G1 X113.269 Y140.009 E.01314
G1 X113.269 Y142.343 E.07316
G1 X112.85 Y142.343 E.01314
G1 X112.85 Y140.009 E.07316
G1 X112.431 Y140.009 E.01314
G1 X112.431 Y142.343 E.07316
G1 X112.012 Y142.343 E.01314
G1 X112.012 Y140.009 E.07316
G1 X111.593 Y140.009 E.01314
G1 X111.593 Y142.343 E.07316
G1 X111.174 Y142.343 E.01314
G1 X111.174 Y140.009 E.07316
G1 X110.755 Y140.009 E.01314
G1 X110.755 Y142.343 E.07316
G1 X110.336 Y142.343 E.01314
G1 X110.336 Y140.009 E.07316
G1 X109.917 Y140.009 E.01314
G1 X109.917 Y142.343 E.07316
G1 X109.498 Y142.343 E.01314
G1 X109.498 Y140.009 E.07316
G1 X109.079 Y140.009 E.01314
G1 X109.079 Y142.343 E.07316
G1 X108.66 Y142.343 E.01314
G1 X108.66 Y140.009 E.07316
G1 X108.241 Y140.009 E.01314
G1 X108.241 Y142.343 E.07316
G1 X107.822 Y142.343 E.01314
G1 X107.822 Y140.009 E.07316
G1 X107.403 Y140.009 E.01314
G1 X107.403 Y142.343 E.07316
G1 X106.984 Y142.343 E.01314
